X:386
T:Sally Goodin
C:Roland White
N:From the album " The Kentucky Colonels Live in Sweden", Arr. John Baldry Transcribed by Mike Stangeland
R:bluegrass
L:1/8
Q:1/4=250
M:4/4
K:A
z8 |: "A"AB cB A2 AB | cB AA FA AA | AB cB A2 F2 | "E"EE EE "A"FA AA :|: "A"AB cd e2 ee | 
fe ee ce ee | fe cB A2 FF | "E"EE EE "A"FA AA :| "A"[ec][eB] [eA][ec] [eB][eA] [eA][eB] | 
[ec][eB] [eA][AF] [eA][eA] [eA][eB] | [ec][eB] [eA][ec] [eB][eA] [AF][FC] | "E"A,C DE "A"FA AA | 
Ac Bc A2 AB | cB AB FA Ac | e2 Bc AF EF | "E"CD ^DE "A"FA AA | AB cd e2 cd | ef ed c2 =c^c | 
e2 ef e2 cA | "E"Bc BA "A"FA AA | AB cd eA cd | ef ee {=c}^cc ce | a2 f2 {B}cc cA | 
"E"Bc BA "A"FA ef | a2 ff {=c}^cc cA | ac cA BA Ac | a2 ff {=c}^cc cA | "E"cA BB "A"cA AA | 
a2 A2 {=c}^cc cc | eA Ac BA AA | a2 A2 {=c}^cc cc | "E"Bc cA "A"BA ab |: c'b bb a2 ab | 
c'b aa fa ab | c'b ba a2 f2 |1 e"E"e ee f"A"a ab :|2 e"E"e ee f"A"a aa | a{=c'}^c' c'c' c'c' c'c' | 
a{=c'}^c' c'c' c'c' c'c' | a{=c'}^c' c'c' c'c' c'c' | "E"ba bc' "A"ba ab | c'b bb a2 ab | 
c'b bb a2 ab | c'b ba af ff | "E"ed cB "A"A2 AB |: "A"cB [e2A2] [e2A2] AB | cB AA FA AB | 
cB AF zE zC |1 E"E"E EE F"A"A AB :|2 E"E"E EE F"A"A AA |: "A"AA ff ee ff | A2 ff e2 f2 | 
AA ff ee ff | "E"fe =c^c "A"A2 AA :|: "A"aa ze fe ef | a2 f2 e2 ef | af ff ef ff | 
"E"fe =c^c "A"A2 AA :|: "A"AB cB A2 AB | cB AA FA AA | AB cB A2 F2 | "E"EE EE "A"FA AA :|: "A"AB cd e2 ee | 
fe ee ce ee | fe cB A2 FF |1 E"E"E EE F"A"A AA :|2 E"E"E EE F"A"A z2 | 


